X:18040
T:Rocky Road to Dublin
R:Slipjig
C:Trad.
O:Ireland
Z:Paul Hardy's Session Tunebook 2022 (see www.paulhardy.net). Creative Commons cc by-nc-sa licenced.
M:9/8
L:1/8
Q:3/8=80
K:Am
"Am"efe "G"d2B "Am"A3|E2 A A2 A "G"Bcd|"Am"efe "G"d2B "Am"A2 c|"G"B2 A G2 A Bcd|
"Am"efe "G"dcB "Am"A3|E2 A A2 A "G"Bcd||[K:Ador]"Em"efg "D"fga "Em"g2 e|"G"d2 B G2 A Bcd|
K:Ador
"Am"e2 a a2 f "G"g2 b|"Am"e2 a a2 A "G"Bcd|"Am"e2 a a2 f "Em"g2 e|"G"d2 B G2 A Bcd|
"Am"e2 a a2 f "G"g2 b|"Am"e2 a a2 A "G"Bcd|"Em"efg "D"fga "Em"g2 e|"G"d2 B G2 A Bcd:|"_Out""Em"e=fe "G"d2B "Am"A3]

